SVG_Azure_All/Azure Arc VMware vCenter.svg

<?xml version="1.0" encoding="UTF-8" standalone="no"?>
<!-- Generated by Microsoft Visio, SVG Export Azure Arc VMware vCenter.svg Page-1 -->

<svg
   xmlns:dc="http://purl.org/dc/elements/1.1/"
   xmlns:cc="http://creativecommons.org/ns#"
   xmlns:rdf="http://www.w3.org/1999/02/22-rdf-syntax-ns#"
   xmlns:svg="http://www.w3.org/2000/svg"
   xmlns="http://www.w3.org/2000/svg"
   xmlns:sodipodi="http://sodipodi.sourceforge.net/DTD/sodipodi-0.dtd"
   xmlns:inkscape="http://www.inkscape.org/namespaces/inkscape"
   width="0.62958568in"
   height="0.78741699in"
   viewBox="0 0 45.330154 56.694006"
   xml:space="preserve"
   class="st7"
   version="1.1"
   id="svg64"
   sodipodi:docname="Azure Arc VMware vCenter.svg"
   style="font-size:12px;overflow:visible;color-interpolation-filters:sRGB;fill:none;fill-rule:evenodd;stroke-linecap:square;stroke-miterlimit:3"
   inkscape:version="0.92.5 (2060ec1f9f, 2020-04-08)"><metadata
   id="metadata68"><rdf:RDF><cc:Work
       rdf:about=""><dc:format>image/svg+xml</dc:format><dc:type
         rdf:resource="http://purl.org/dc/dcmitype/StillImage" /></cc:Work></rdf:RDF></metadata><sodipodi:namedview
   pagecolor="#ffffff"
   bordercolor="#666666"
   borderopacity="1"
   objecttolerance="10"
   gridtolerance="10"
   guidetolerance="10"
   inkscape:pageopacity="0"
   inkscape:pageshadow="2"
   inkscape:window-width="640"
   inkscape:window-height="480"
   id="namedview66"
   showgrid="false"
   inkscape:zoom="1.4193037"
   inkscape:cx="30.216068"
   inkscape:cy="37.784297"
   inkscape:window-x="0"
   inkscape:window-y="0"
   inkscape:window-maximized="0"
   inkscape:current-layer="svg64" />
	<style
   type="text/css"
   id="style2">
	<![CDATA[
		.st1 {fill:#5ea0ef;stroke:none;stroke-linecap:butt;stroke-width:34}
		.st2 {fill:#50e6ff;stroke:none;stroke-linecap:butt;stroke-width:34}
		.st3 {fill:#767676;stroke:none;stroke-linecap:butt;stroke-width:34}
		.st4 {fill:url(#grad0-12);stroke:none;stroke-linecap:butt;stroke-width:34}
		.st5 {fill:#003067;stroke:none;stroke-linecap:butt;stroke-width:34}
		.st6 {fill:url(#grad0-20);stroke:none;stroke-linecap:butt;stroke-width:34}
		.st7 {fill:none;fill-rule:evenodd;font-size:12px;overflow:visible;stroke-linecap:square;stroke-miterlimit:3}
	]]>
	</style>

	<defs
   id="Patterns_And_Gradients">
		<linearGradient
   id="grad0-12"
   x1="-0.00037810258"
   y1="62.495567"
   x2="32.435037"
   y2="62.495567"
   gradientTransform="scale(0.76121387,1.3136913)"
   gradientUnits="userSpaceOnUse">
			<stop
   offset="0"
   stop-color="#b3b2b3"
   stop-opacity="1"
   id="stop4" />
			<stop
   offset="0.375"
   stop-color="#afaeaf"
   stop-opacity="1"
   id="stop6" />
			<stop
   offset="0.765"
   stop-color="#a2a2a2"
   stop-opacity="1"
   id="stop8" />
			<stop
   offset="1"
   stop-color="#979797"
   stop-opacity="1"
   id="stop10" />
		</linearGradient>
		<linearGradient
   id="grad0-20"
   x1="0"
   y1="121.68901"
   x2="23.928809"
   y2="121.68901"
   gradientTransform="scale(1.1676302,0.85643555)"
   gradientUnits="userSpaceOnUse">
			<stop
   offset="0.18"
   stop-color="#5ea0ef"
   stop-opacity="1"
   id="stop13" />
			<stop
   offset="1"
   stop-color="#0078d4"
   stop-opacity="1"
   id="stop15" />
		</linearGradient>
	</defs>
	<g
   id="g62"
   transform="translate(-34.004457,-33.998709)">
		<title
   id="title19">Page-1</title>
		<g
   id="group8514-1"
   transform="translate(33.9784,-34.0157)">
			<title
   id="title21">Azure Arc VMware vCenter</title>
			<g
   id="group8515-2">
				<title
   id="title23">Sheet.8515</title>
				<g
   id="shape8516-3">
					<title
   id="title25">Sheet.8516</title>
					<path
   d="m 45.28,117.19 c -0.43,1.89 -2.74,3.73 -6.92,5.17 A 57.0749,57.8831 0 0 1 6.31,122.4 c -3.85,-1.37 -5.92,-3.15 -6.25,-4.93 -0.06,-0.31 0,-5.14 0,-5.14 l 45.29,-0.43 c 0,0 -0.02,5.06 -0.07,5.29 z"
   class="st1"
   id="path27"
   inkscape:connector-curvature="0"
   style="fill:#5ea0ef;stroke:none;stroke-width:34;stroke-linecap:butt" />
				</g>
				<g
   id="shape8517-5"
   transform="translate(0.00621122,-4.41607)">
					<title
   id="title30">Sheet.8517</title>
					<path
   d="m 45.35,116.4 v 0.06 c -0.04,4.37 -10.12,8 -22.59,8.12 -12.11,0.13 -22.02,-3.09 -22.7,-7.28 A 2.44412,2.47872 0 0 1 0.02,116.87 C 0,114.94 1.93,113.16 5.17,111.75 a 47.8264,48.5036 0 0 1 17.44,-3.06 47.8078,48.4847 0 0 1 17.52,2.72 c 3.19,1.31 5.14,3.02 5.22,4.91 z"
   class="st2"
   id="path32"
   inkscape:connector-curvature="0"
   style="fill:#50e6ff;stroke:none;stroke-width:34;stroke-linecap:butt" />
				</g>
				<g
   id="shape8518-7"
   transform="translate(9.06528,-14.0853)">
					<title
   id="title35">Sheet.8518</title>
					<path
   d="m 24.69,83.48 -0.03,39.19 v 0.61 a 1.3851,1.40472 0 0 1 -1.36,1.43 H 1.39 A 1.382,1.40157 0 0 1 0,123.3 V 83.53 A 1.382,1.40157 0 0 1 1.36,82.1 h 21.92 a 1.382,1.40157 0 0 1 1.41,1.38 z"
   class="st3"
   id="path37"
   inkscape:connector-curvature="0"
   style="fill:#767676;stroke:none;stroke-width:34;stroke-linecap:butt" />
				</g>
				<g
   id="shape8519-9"
   transform="translate(4.86028,-9.82076)">
					<title
   id="title40">Sheet.8519</title>
					<path
   d="m 24.69,83.48 -0.03,39.8 a 1.382,1.40157 0 0 1 -1.36,1.43 H 1.38 A 1.382,1.40157 0 0 1 0,123.31 V 83.53 A 1.382,1.40157 0 0 1 1.36,82.1 h 21.93 a 1.382,1.40157 0 0 1 1.4,1.38 z"
   class="st4"
   id="path42"
   inkscape:connector-curvature="0"
   style="fill:url(#grad0-12);stroke:none;stroke-width:34;stroke-linecap:butt" />
				</g>
				<g
   id="shape8520-13"
   transform="translate(8.36651,-34.7529)">
					<title
   id="title45">Sheet.8520</title>
					<path
   d="m 0,121.98 a 2.67393,2.71179 0 0 1 2.67,-2.71 h 12.48 a 2.67082,2.70864 0 0 1 2.6,2.71 2.67082,2.70864 0 0 1 -2.65,2.73 H 2.72 A 2.69256,2.73069 0 0 1 0,122 Z m 0,-8.02 a 2.66772,2.7055 -180 0 0 2.72,2.66 h 12.36 a 2.67082,2.70864 -180 0 0 2.67,-2.71 2.66772,2.7055 -180 0 0 -2.6,-2.73 H 2.69 A 2.69567,2.73384 -180 0 0 0,113.91 v 0.04 z"
   class="st5"
   id="path47"
   inkscape:connector-curvature="0"
   style="fill:#003067;stroke:none;stroke-width:34;stroke-linecap:butt" />
				</g>
				<g
   id="shape8521-15"
   transform="translate(9.45658,-36.1865)">
					<title
   id="title50">Sheet.8521</title>
					<path
   d="M 1.8,113.51 A 1.80436,1.82991 0 1 1 0,115.34 1.80436,1.82991 0 0 1 1.8,113.51 Z M 0,123.42 a 1.80436,1.82991 -180 1 0 1.8,-1.83 1.80436,1.82991 -180 0 0 -1.8,1.83 z"
   class="st2"
   id="path52"
   inkscape:connector-curvature="0"
   style="fill:#50e6ff;stroke:none;stroke-width:34;stroke-linecap:butt" />
				</g>
				<g
   id="shape8522-17"
   transform="translate(12.5684,-9.81761)">
					<title
   id="title55">Sheet.8522</title>
					<path
   d="m 27.94,118.26 a 6.34787,6.43776 -180 0 0 -5.44,-6.19 8.00626,8.11964 -180 0 0 -8.14,-7.85 8.14291,8.25822 -180 0 0 -7.8,5.49 7.54042,7.6472 -180 0 0 -6.56,7.42 7.67707,7.78578 -180 0 0 7.86,7.58 h 13.79 a 6.41308,6.5039 -180 0 0 6.29,-6.45 z"
   class="st6"
   id="path57"
   inkscape:connector-curvature="0"
   style="fill:url(#grad0-20);stroke:none;stroke-width:34;stroke-linecap:butt" />
				</g>
			</g>
		</g>
	</g>
</svg>

<?xml version="1.0" encoding="UTF-8" standalone="no"?>
<!DOCTYPE svg PUBLIC "-//W3C//DTD SVG 1.1//EN" "http://www.w3.org/Graphics/SVG/1.1/DTD/svg11.dtd">
<!-- Generated by Microsoft Visio, SVG Export Azure Arc VMware vCenter.svg Page-1 -->
<svg xmlns="http://www.w3.org/2000/svg" xmlns:xlink="http://www.w3.org/1999/xlink" xmlns:ev="http://www.w3.org/2001/xml-events"
		width="1.57407in" height="1.73207in" viewBox="0 0 113.333 124.709" xml:space="preserve" color-interpolation-filters="sRGB"
		class="st7">
	<style type="text/css">
	<![CDATA[
		.st1 {fill:#5ea0ef;stroke:none;stroke-linecap:butt;stroke-width:34}
		.st2 {fill:#50e6ff;stroke:none;stroke-linecap:butt;stroke-width:34}
		.st3 {fill:#767676;stroke:none;stroke-linecap:butt;stroke-width:34}
		.st4 {fill:url(#grad0-12);stroke:none;stroke-linecap:butt;stroke-width:34}
		.st5 {fill:#003067;stroke:none;stroke-linecap:butt;stroke-width:34}
		.st6 {fill:url(#grad0-20);stroke:none;stroke-linecap:butt;stroke-width:34}
		.st7 {fill:none;fill-rule:evenodd;font-size:12px;overflow:visible;stroke-linecap:square;stroke-miterlimit:3}
	]]>
	</style>

	<defs id="Patterns_And_Gradients">
		<linearGradient id="grad0-12" x1="0" y1="0" x2="1" y2="0" gradientTransform="rotate(90 0.5 0.5)">
			<stop offset="0" stop-color="#b3b2b3" stop-opacity="1"/>
			<stop offset="0.375" stop-color="#afaeaf" stop-opacity="1"/>
			<stop offset="0.765" stop-color="#a2a2a2" stop-opacity="1"/>
			<stop offset="1" stop-color="#979797" stop-opacity="1"/>
		</linearGradient>
		<linearGradient id="grad0-20" x1="0" y1="0" x2="1" y2="0" gradientTransform="rotate(90 0.5 0.5)">
			<stop offset="0.18" stop-color="#5ea0ef" stop-opacity="1"/>
			<stop offset="1" stop-color="#0078d4" stop-opacity="1"/>
		</linearGradient>
	</defs>
	<g>
		<title>Page-1</title>
		<g id="group8319-1" transform="translate(33.9784,-34.0157)">
			<title>Azure Arc VMware vCenter</title>
			<g id="group8320-2">
				<title>Sheet.8320</title>
				<g id="shape8321-3">
					<title>Sheet.8321</title>
					<path d="M45.28 117.19 C44.85 119.08 42.54 120.92 38.36 122.36 A57.0749 57.8831 0 0 1 6.31 122.4 C2.46 121.03
								 0.39 119.25 0.06 117.47 C0 117.16 0.06 112.33 0.06 112.33 L45.35 111.9 C45.35 111.9 45.33 116.96
								 45.28 117.19 Z" class="st1"/>
				</g>
				<g id="shape8322-5" transform="translate(0.00621122,-4.41607)">
					<title>Sheet.8322</title>
					<path d="M45.35 116.4 L45.35 116.46 C45.31 120.83 35.23 124.46 22.76 124.58 C10.65 124.71 0.74 121.49 0.06 117.3
								 A2.44412 2.47872 0 0 1 0.02 116.87 C0 114.94 1.93 113.16 5.17 111.75 A47.8264 48.5036 0 0 1 22.61
								 108.69 A47.8078 48.4847 0 0 1 40.13 111.41 C43.32 112.72 45.27 114.43 45.35 116.32 L45.35 116.4
								 Z" class="st2"/>
				</g>
				<g id="shape8323-7" transform="translate(9.06528,-14.0853)">
					<title>Sheet.8323</title>
					<path d="M24.69 83.48 L24.66 122.67 L24.66 123.28 A1.3851 1.40472 0 0 1 23.3 124.71 L1.39 124.71 A1.382 1.40157
								 0 0 1 0 123.3 L0 83.53 A1.382 1.40157 0 0 1 1.36 82.1 L23.28 82.1 A1.382 1.40157 0 0 1 24.69 83.48
								 Z" class="st3"/>
				</g>
				<g id="shape8324-9" transform="translate(4.86028,-9.82076)">
					<title>Sheet.8324</title>
					<path d="M24.69 83.48 L24.66 123.28 A1.382 1.40157 0 0 1 23.3 124.71 L1.38 124.71 A1.382 1.40157 0 0 1 0 123.31
								 L0 83.53 A1.382 1.40157 0 0 1 1.36 82.1 L23.29 82.1 A1.382 1.40157 0 0 1 24.69 83.48 Z"
							class="st4"/>
				</g>
				<g id="shape8325-13" transform="translate(8.36651,-34.7529)">
					<title>Sheet.8325</title>
					<path d="M0 121.98 A2.67393 2.71179 0 0 1 2.67 119.27 L15.15 119.27 A2.67082 2.70864 0 0 1 17.75 121.98 A2.67082
								 2.70864 0 0 1 15.1 124.71 L2.72 124.71 A2.69256 2.73069 0 0 1 0 122 L0 121.98 ZM0 113.96 A2.66772
								 2.7055 -180 0 0 2.72 116.62 L15.08 116.62 A2.67082 2.70864 -180 0 0 17.75 113.91 A2.66772 2.7055
								 -180 0 0 15.15 111.18 L2.69 111.18 A2.69567 2.73384 -180 0 0 -0 113.91 L0 113.95 L0 113.96 Z"
							class="st5"/>
				</g>
				<g id="shape8326-15" transform="translate(9.45658,-36.1865)">
					<title>Sheet.8326</title>
					<path d="M1.8 113.51 A1.80436 1.82991 0 1 1 0 115.34 A1.80436 1.82991 0 0 1 1.8 113.51 ZM0 123.42 A1.80436 1.82991
								 -180 1 0 1.8 121.59 A1.80436 1.82991 -180 0 0 -0 123.42 Z" class="st2"/>
				</g>
				<g id="shape8327-17" transform="translate(12.5684,-9.81761)">
					<title>Sheet.8327</title>
					<path d="M27.94 118.26 A6.34787 6.43776 -180 0 0 22.5 112.07 A8.00626 8.11964 -180 0 0 14.36 104.22 A8.14291
								 8.25822 -180 0 0 6.56 109.71 A7.54042 7.6472 -180 0 0 -0 117.13 A7.67707 7.78578 -180 0 0 7.86 124.71
								 L21.65 124.71 A6.41308 6.5039 -180 0 0 27.94 118.26 Z" class="st6"/>
				</g>
			</g>
		</g>
	</g>
</svg>
